actions/32/tag-new.svg

<?xml version="1.0" encoding="UTF-8" standalone="no"?>
<svg
   xmlns:dc="http://purl.org/dc/elements/1.1/"
   xmlns:cc="http://creativecommons.org/ns#"
   xmlns:rdf="http://www.w3.org/1999/02/22-rdf-syntax-ns#"
   xmlns:svg="http://www.w3.org/2000/svg"
   xmlns="http://www.w3.org/2000/svg"
   xmlns:xlink="http://www.w3.org/1999/xlink"
   id="svg2932"
   height="32"
   width="32"
   version="1.1">
  <defs
     id="defs2934">
    <linearGradient
       gradientTransform="matrix(1.3333333,0,0,1.3333333,-1.3333332,1.3326026)"
       gradientUnits="userSpaceOnUse"
       xlink:href="#linearGradient3251"
       id="linearGradient2865"
       y2="-0.02451775"
       x2="17.591623"
       y1="7"
       x1="17.591623" />
    <linearGradient
       id="linearGradient3251">
      <stop
         offset="0"
         style="stop-color:#917f6e;stop-opacity:1"
         id="stop3253" />
      <stop
         offset="1"
         style="stop-color:#cbbaa9;stop-opacity:1"
         id="stop3255" />
    </linearGradient>
    <linearGradient
       gradientTransform="matrix(1.24495,0,0,1.2452213,-29.306419,-1.9542885)"
       gradientUnits="userSpaceOnUse"
       xlink:href="#linearGradient4222"
       id="linearGradient2868"
       y2="7.0924568"
       x2="40.006763"
       y1="12.910877"
       x1="40.006763" />
    <linearGradient
       id="linearGradient4222">
      <stop
         offset="0"
         style="stop-color:#ffffff;stop-opacity:1"
         id="stop4224" />
      <stop
         offset="1"
         style="stop-color:#ffffff;stop-opacity:0"
         id="stop4226" />
    </linearGradient>
    <linearGradient
       gradientTransform="matrix(1.3913044,0,0,1.3913096,-34.652174,-3.9537464)"
       gradientUnits="userSpaceOnUse"
       xlink:href="#linearGradient4222"
       id="linearGradient2871"
       y2="22.697742"
       x2="38.382198"
       y1="5.90625"
       x1="38.382198" />
    <linearGradient
       gradientTransform="matrix(1.3333333,0,0,1.3333333,-32.833332,-2.8333323)"
       gradientUnits="userSpaceOnUse"
       xlink:href="#linearGradient3243"
       id="linearGradient2874"
       y2="24.0341"
       x2="39.905758"
       y1="6.1230369"
       x1="39.905758" />
    <linearGradient
       id="linearGradient3243">
      <stop
         offset="0"
         style="stop-color:#fff4e9;stop-opacity:1"
         id="stop3245" />
      <stop
         offset="1"
         style="stop-color:#e7d6c5;stop-opacity:1"
         id="stop3247" />
    </linearGradient>
    <linearGradient
       gradientTransform="matrix(1.3333333,0,0,1.3333333,-32.833332,-2.8333323)"
       gradientUnits="userSpaceOnUse"
       xlink:href="#linearGradient3251"
       id="linearGradient2876"
       y2="5"
       x2="32.015705"
       y1="24.011269"
       x1="32.015705" />
    <linearGradient
       id="linearGradient3283">
      <stop
         offset="0"
         style="stop-color:#000000;stop-opacity:1"
         id="stop3285" />
      <stop
         offset="1"
         style="stop-color:#000000;stop-opacity:0"
         id="stop3287" />
    </linearGradient>
    <radialGradient
       gradientTransform="matrix(1.3022726,0,0,0.4340909,-1.6363627,16.587087)"
       gradientUnits="userSpaceOnUse"
       xlink:href="#linearGradient3283"
       id="radialGradient2930"
       fy="20.146597"
       fx="10.471204"
       r="9.2146597"
       cy="20.146597"
       cx="10.471204" />
    <radialGradient
       gradientTransform="matrix(0,0.68597915,-0.7462606,0,60.288383,-27.737493)"
       gradientUnits="userSpaceOnUse"
       xlink:href="#linearGradient3242-7-3-8-0-4-58-06"
       id="radialGradient3343"
       fy="48.709068"
       fx="65.325226"
       r="31.000002"
       cy="48.709068"
       cx="65.325226" />
    <linearGradient
       id="linearGradient3242-7-3-8-0-4-58-06">
      <stop
         id="stop3244-5-8-5-6-4-3-8"
         style="stop-color:#cdf87e;stop-opacity:1"
         offset="0" />
      <stop
         id="stop3246-9-5-1-5-3-0-7"
         style="stop-color:#a2e34f;stop-opacity:1"
         offset="0.26238" />
      <stop
         id="stop3248-7-2-0-7-5-35-9"
         style="stop-color:#68b723;stop-opacity:1"
         offset="0.66093999" />
      <stop
         id="stop3250-8-2-8-5-6-40-4"
         style="stop-color:#1d7e0d;stop-opacity:1"
         offset="1" />
    </linearGradient>
    <linearGradient
       gradientTransform="matrix(0.42269325,0,0,0.38513145,14.544843,15.082967)"
       gradientUnits="userSpaceOnUse"
       xlink:href="#linearGradient4154"
       id="linearGradient3030"
       y2="36.135799"
       x2="24.138529"
       y1="10.170639"
       x1="24.138529" />
    <linearGradient
       id="linearGradient4154">
      <stop
         offset="0"
         style="stop-color:#ffffff;stop-opacity:1"
         id="stop4156" />
      <stop
         offset="0"
         style="stop-color:#ffffff;stop-opacity:0.23529412"
         id="stop4158" />
      <stop
         offset="1"
         style="stop-color:#ffffff;stop-opacity:0.15686275"
         id="stop4160" />
      <stop
         offset="1"
         style="stop-color:#ffffff;stop-opacity:0.39215687"
         id="stop4162" />
    </linearGradient>
    <linearGradient
       gradientTransform="matrix(0.38833389,0,0,0.41842122,15.301011,14.318351)"
       gradientUnits="userSpaceOnUse"
       xlink:href="#linearGradient4333"
       id="linearGradient3030-1"
       y2="25.52846"
       x2="24.138529"
       y1="20.748587"
       x1="24.138529" />
    <linearGradient
       id="linearGradient4333">
      <stop
         id="stop4335"
         style="stop-color:#ffffff;stop-opacity:1"
         offset="0" />
      <stop
         id="stop4337"
         style="stop-color:#ffffff;stop-opacity:0.23529412"
         offset="0.00000003" />
      <stop
         id="stop4339"
         style="stop-color:#ffffff;stop-opacity:0.15686275"
         offset="1" />
      <stop
         id="stop4341"
         style="stop-color:#ffffff;stop-opacity:0.39215687"
         offset="1" />
    </linearGradient>
  </defs>
  <metadata
     id="metadata2937">
    <rdf:RDF>
      <cc:Work
         rdf:about="">
        <dc:format>image/svg+xml</dc:format>
        <dc:type
           rdf:resource="http://purl.org/dc/dcmitype/StillImage" />
        <dc:title></dc:title>
      </cc:Work>
    </rdf:RDF>
  </metadata>
  <path
     d="m 23.999998,25.332543 a 11.999999,4 0 1 1 -23.99999782499999,0 11.999999,4 0 1 1 23.99999782499999,0 z"
     id="path3281"
     style="display:inline;overflow:visible;visibility:visible;opacity:0.3;fill:url(#radialGradient2930);fill-opacity:1;fill-rule:evenodd;stroke:none;stroke-width:1;marker:none;enable-background:accumulate" />
  <path
     d="M 15.166666,4.5000007 2.5,17.625 13.5,28.5 26.499999,15.833333 l 0,-11.3333323 -11.333333,0 z M 20.5,8.5000006 c 1.104,0 1.999999,0.896 1.999999,1.9999994 0,1.104 -0.895999,2 -1.999999,2 -1.104,0 -2,-0.896 -2,-2 0,-1.1039994 0.896,-1.9999994 2,-1.9999994 z"
     id="path2463"
     style="fill:url(#linearGradient2874);fill-opacity:1;fill-rule:evenodd;stroke:url(#linearGradient2876);stroke-width:1px;stroke-linecap:butt;stroke-linejoin:miter;stroke-opacity:1" />
  <path
     d="M 15.606156,5.5000004 C 15.606156,5.5000004 4,17.591241 4,17.591241 c 0,0 9.5,9.525114 9.5,9.525114 0,0 12,-11.78853 12,-11.78853 0,0 0,-9.8278246 0,-9.8278246 0,0 -9.893844,0 -9.893844,0 z"
     id="path3265"
     style="opacity:0.6;fill:none;stroke:url(#linearGradient2871);stroke-width:0.99999994px;stroke-linecap:butt;stroke-linejoin:miter;stroke-opacity:1" />
  <path
     d="m 20.491579,7.5016105 c 1.883968,-0.066433 3.437389,1.9348161 2.901167,3.7441565 -0.398183,1.775458 -2.583912,2.798657 -4.198626,1.952499 -1.662006,-0.734293 -2.241344,-3.07207 -1.102204,-4.4918193 0.553372,-0.7489857 1.467356,-1.2120498 2.399663,-1.2048362 z"
     id="path3294"
     style="opacity:0.6;fill:none;stroke:url(#linearGradient2868);stroke-width:0.99999994px;stroke-linecap:butt;stroke-linejoin:miter;stroke-opacity:1" />
  <path
     d="m 20.666666,9.9992689 c 1.478691,-0.7829587 3.405365,-1.0228253 5.235829,-1.063652 0.822863,-0.018347 1.654592,0.1492 2.46204,-0.042853 1.027656,-0.24444 1.727978,-0.9973507 1.625532,-1.6856653 C 29.852546,6.2831466 28.611378,5.6010666 27.447319,5.1129666 26.414775,4.680012 25.620061,3.9084973 25.200071,3.09348 24.987877,2.6817027 25.358453,2.2493322 25.952862,2.1166 c 0.539995,-0.1205813 1.105576,-0.1682437 1.65506,-0.045808 0.836323,0.186349 1.823576,0.4136938 2.212627,1.0062134"
     id="path3298"
     style="fill:none;stroke:url(#linearGradient2865);stroke-width:0.99999988px;stroke-linecap:butt;stroke-linejoin:miter;stroke-opacity:1" />
  <g
     id="g4374">
    <path
       style="color:#000000;display:inline;overflow:visible;visibility:visible;fill:url(#radialGradient3343);fill-opacity:1;fill-rule:nonzero;stroke:none;stroke-width:0.98542744;stroke-linecap:round;stroke-linejoin:round;stroke-miterlimit:4;stroke-dasharray:none;stroke-dashoffset:0;stroke-opacity:1;marker:none;enable-background:accumulate"
       id="path2262"
       d="m 21.5,21.5 0,-4.021022 5,0 0,4.021022 4.007287,0 0,5 -4.007287,0 0,4.007286 -5,0 0,-4.007286 -4.007286,0 0,-5 4.007286,0 z" />
    <path
       d="m 22.5,23.003028 0,-4.503028 3,0 0,4.496972 M 25.5,25 l 0,4.5 -3,0 0,-4.5"
       id="path2272-4"
       style="display:inline;opacity:0.5;fill:none;stroke:url(#linearGradient3030);stroke-width:1;stroke-linecap:butt;stroke-linejoin:miter;stroke-miterlimit:4;stroke-dasharray:none;stroke-opacity:1" />
    <path
       d="m 26,22.512298 3.499869,-0.01086 0,2.987703 L 26,25.500001 m -4,0 -3.500131,-0.01086 0,-2.987703 L 22,22.512298"
       id="path2272-2"
       style="display:inline;opacity:0.5;fill:none;stroke:url(#linearGradient3030-1);stroke-width:0.99999994;stroke-linecap:butt;stroke-linejoin:miter;stroke-miterlimit:4;stroke-dasharray:none;stroke-opacity:1" />
    <path
       style="color:#000000;clip-rule:nonzero;display:inline;overflow:visible;visibility:visible;opacity:0.5;isolation:auto;mix-blend-mode:normal;color-interpolation:sRGB;color-interpolation-filters:linearRGB;solid-color:#000000;solid-opacity:1;fill:none;fill-opacity:1;fill-rule:nonzero;stroke:#0f5a00;stroke-width:1;stroke-linecap:round;stroke-linejoin:round;stroke-miterlimit:4;stroke-dasharray:none;stroke-dashoffset:0;stroke-opacity:1;marker:none;color-rendering:auto;image-rendering:auto;shape-rendering:auto;text-rendering:auto;enable-background:accumulate"
       id="path2262-9"
       d="m 21.5,21.5 0,-4.021022 5,0 0,4.021022 4.007287,0 0,5 -4.007287,0 0,4.007286 -5,0 0,-4.007286 -4.007286,0 0,-5 4.007286,0 z" />
  </g>
</svg>

<svg xmlns="http://www.w3.org/2000/svg" xmlns:xlink="http://www.w3.org/1999/xlink" viewBox="0 0 32 32"><defs><linearGradient gradientTransform="translate(-1.333 1.333) scale(1.33333)" gradientUnits="userSpaceOnUse" xlink:href="#a" id="m" y2="-.025" x2="17.592" y1="7" x1="17.592"/><linearGradient id="a"><stop offset="0" stop-color="#917f6e"/><stop offset="1" stop-color="#cbbaa9"/></linearGradient><linearGradient gradientTransform="matrix(1.24495 0 0 1.24522 -29.306 -1.954)" gradientUnits="userSpaceOnUse" xlink:href="#b" id="l" y2="7.092" x2="40.007" y1="12.911" x1="40.007"/><linearGradient id="b"><stop offset="0" stop-color="#fff"/><stop offset="1" stop-color="#fff" stop-opacity="0"/></linearGradient><linearGradient gradientTransform="translate(-34.652 -3.954) scale(1.3913)" gradientUnits="userSpaceOnUse" xlink:href="#b" id="k" y2="22.698" x2="38.382" y1="5.906" x1="38.382"/><linearGradient gradientTransform="translate(-32.833 -2.833) scale(1.33333)" gradientUnits="userSpaceOnUse" xlink:href="#c" id="i" y2="24.034" x2="39.906" y1="6.123" x1="39.906"/><linearGradient id="c"><stop offset="0" stop-color="#fff4e9"/><stop offset="1" stop-color="#e7d6c5"/></linearGradient><linearGradient gradientTransform="translate(-32.833 -2.833) scale(1.33333)" gradientUnits="userSpaceOnUse" xlink:href="#a" id="j" y2="5" x2="32.016" y1="24.011" x1="32.016"/><linearGradient id="d"><stop offset="0"/><stop offset="1" stop-opacity="0"/></linearGradient><radialGradient gradientTransform="matrix(1.30227 0 0 .4341 -1.636 16.587)" gradientUnits="userSpaceOnUse" xlink:href="#d" id="h" fy="20.147" fx="10.471" r="9.215" cy="20.147" cx="10.471"/><radialGradient gradientTransform="matrix(0 .68598 -.74626 0 60.288 -27.737)" gradientUnits="userSpaceOnUse" xlink:href="#e" id="n" fy="48.709" fx="65.325" r="31" cy="48.709" cx="65.325"/><linearGradient id="e"><stop offset="0" stop-color="#cdf87e"/><stop offset=".262" stop-color="#a2e34f"/><stop offset=".661" stop-color="#68b723"/><stop offset="1" stop-color="#1d7e0d"/></linearGradient><linearGradient gradientTransform="matrix(.4227 0 0 .38513 14.545 15.083)" gradientUnits="userSpaceOnUse" xlink:href="#f" id="o" y2="36.136" x2="24.139" y1="10.171" x1="24.139"/><linearGradient id="f"><stop offset="0" stop-color="#fff"/><stop offset="0" stop-color="#fff" stop-opacity=".235"/><stop offset="1" stop-color="#fff" stop-opacity=".157"/><stop offset="1" stop-color="#fff" stop-opacity=".392"/></linearGradient><linearGradient gradientTransform="matrix(.38833 0 0 .41842 15.3 14.318)" gradientUnits="userSpaceOnUse" xlink:href="#g" id="p" y2="25.528" x2="24.139" y1="20.749" x1="24.139"/><linearGradient id="g"><stop offset="0" stop-color="#fff"/><stop offset="0" stop-color="#fff" stop-opacity=".235"/><stop offset="1" stop-color="#fff" stop-opacity=".157"/><stop offset="1" stop-color="#fff" stop-opacity=".392"/></linearGradient></defs><path d="M24 25.333a12 4 0 1 1-24 0 12 4 0 1 1 24 0z" overflow="visible" opacity=".3" fill="url(#h)" fill-rule="evenodd"/><path d="M15.167 4.5L2.5 17.625l11 10.875 13-12.667V4.5H15.167zm5.333 4a2 2 0 1 1 0 4 2 2 0 0 1 0-4z" fill="url(#i)" fill-rule="evenodd" stroke="url(#j)"/><path d="M15.606 5.5L4 17.59l9.5 9.526 12-11.788V5.5h-9.894z" opacity=".6" fill="none" stroke="url(#k)"/><path d="M20.492 7.502c1.884-.067 3.437 1.934 2.9 3.744-.397 1.775-2.583 2.798-4.198 1.952-1.662-.734-2.24-3.072-1.102-4.492a3 3 0 0 1 2.4-1.204z" opacity=".6" fill="none" stroke="url(#l)"/><path d="M20.667 10c1.478-.784 3.405-1.024 5.235-1.064.823-.02 1.655.15 2.463-.043 1.027-.245 1.728-.998 1.625-1.686-.137-.924-1.38-1.606-2.543-2.094-1.032-.433-1.827-1.205-2.247-2.02-.212-.41.158-.844.753-.976.54-.12 1.105-.17 1.655-.046.836.19 1.823.417 2.213 1.01" fill="none" stroke="url(#m)"/><path d="M21.5 21.5v-4.02h5v4.02h4.007v5H26.5v4.007h-5V26.5h-4.007v-5H21.5z" color="#000" overflow="visible" fill="url(#n)"/><path d="M22.5 23.003V18.5h3v4.497m0 2.003v4.5h-3V25" opacity=".5" fill="none" stroke="url(#o)"/><path d="M26 22.512l3.5-.01v2.987l-3.5.01m-4 0l-3.5-.01V22.5l3.5.012" opacity=".5" fill="none" stroke="url(#p)"/><path style="isolation:auto;mix-blend-mode:normal" d="M21.5 21.5v-4.02h5v4.02h4.007v5H26.5v4.007h-5V26.5h-4.007v-5H21.5z" color="#000" overflow="visible" opacity=".5" fill="none" stroke="#0f5a00" stroke-linecap="round" stroke-linejoin="round"/></svg>
